X: 1
T: Polska fr\aan M\"oklinta
O: efter klockare Nystr\"om
S: Nyckelharpa version by Petrus Hyvonen
D: Sw\aap
M: 3/4
L: 1/16
K: A
|:A2ce  a2g2 a2f2 \
| f3e   e2d2 d2c2 \
| cdef  agfe dcBA \
|1,3 cBAG G2A2 E4 \
:|2,4 cBAG G2A2 A4 :|
|:c2c2  d2d2 c2c2 \
| d2d2  c2c2 a2a2 \
| c3c   d2d2 c3c \
| d2d2  c2c2 a2a2 \
| B3A   B2d2 cBAG |
| A2c2  e2fe dcBA \
| B2B2- B2d2 cBAG \
| A2c2  e2fe dcBA \
| ABcd  e2a2 e3d \
| cBAG  B4   A4 :|
